packages/sources/icons/src/vitamix/heart-pulse-fill.svg

<svg width="16" height="16" viewBox="0 0 16 16" xmlns="http://www.w3.org/2000/svg"><path d="M11 2C13.0254 2 14.6667 3.66667 14.6667 6C14.6667 10.6667 9.66671 13.3333 8.00004 14.3333C6.68137 13.542 3.27737 11.7087 1.91204 8.66667H5.04404L5.66671 7.62933L7.66671 10.9627L9.04404 8.66667H11.3334V7.33333H8.28937L7.66671 8.37067L5.66671 5.03733L4.28937 7.33333H1.47337C1.38271 6.90867 1.33337 6.464 1.33337 6C1.33337 3.66667 3.00004 2 5.00004 2C6.24004 2 7.33337 2.66667 8.00004 3.33333C8.66671 2.66667 9.76004 2 11 2Z"/></svg>

<svg width="16" height="16" xmlns="http://www.w3.org/2000/svg"><path d="M11 2c2.025 0 3.667 1.667 3.667 4 0 4.667-5 7.333-6.667 8.333-1.319-.791-4.723-2.624-6.088-5.666h3.132l.623-1.038 2 3.334 1.377-2.296h2.29V7.333H8.288l-.622 1.038-2-3.334-1.378 2.296H1.473A6.408 6.408 0 0 1 1.333 6C1.333 3.667 3 2 5 2c1.24 0 2.333.667 3 1.333C8.667 2.667 9.76 2 11 2Z"/></svg>
